icons/issue-locked-16.svg

<svg width="16" height="16" viewBox="0 0 16 16" fill="none" xmlns="http://www.w3.org/2000/svg">
<path fill-rule="evenodd" clip-rule="evenodd" d="M12.001 6C13.6578 6 15.001 7.34315 15.001 9V10.168C15.5922 10.4488 16.001 11.0519 16.001 11.75V14.25C16.001 15.2165 15.2175 16 14.251 16H9.75098C8.78448 16 8.00098 15.2165 8.00098 14.25V11.75C8.00098 11.0519 8.40974 10.4488 9.00098 10.168V9C9.00098 7.34315 10.3441 6 12.001 6ZM12.001 7.5C11.1725 7.5 10.501 8.17157 10.501 9V10H13.501V9C13.501 8.17157 12.8294 7.5 12.001 7.5Z" fill="#010409"/>
<path d="M5.09502 0.545961C6.31873 0.0690158 7.64012 -0.0984699 8.9417 0.0557262L9.20147 0.0908824C10.5001 0.288145 11.7294 0.801767 12.7806 1.58502L12.9876 1.74518C13.8868 2.46222 14.6187 3.36291 15.1361 4.38363C15.3235 4.75349 15.1307 5.19143 14.7447 5.3431C14.3593 5.49456 13.9279 5.30255 13.7325 4.93744C13.4062 4.32753 12.9856 3.77593 12.4896 3.30182C12.4532 3.26693 12.4174 3.23138 12.3802 3.19733C12.3631 3.18179 12.3456 3.16679 12.3284 3.15143C12.2743 3.10299 12.2193 3.0555 12.1634 3.00885C12.143 2.99181 12.1225 2.97487 12.1019 2.95807C12.0856 2.94483 12.0694 2.93112 12.053 2.91803C12.0394 2.90715 12.0248 2.89754 12.011 2.88678C11.9295 2.82274 11.8466 2.76042 11.762 2.70026C11.7348 2.68091 11.7075 2.66156 11.68 2.64264C11.4616 2.49236 11.2339 2.35466 10.9974 2.23151C10.9881 2.22667 10.9784 2.22262 10.969 2.21784C10.6053 2.03072 10.2222 1.8763 9.82256 1.75983C9.8099 1.75613 9.79716 1.75271 9.78448 1.74909C9.66031 1.71372 9.5346 1.68241 9.40752 1.65436C9.4016 1.65304 9.39588 1.65077 9.38995 1.64948C9.25518 1.62013 9.11898 1.59437 8.98123 1.57352L8.97833 1.5733L8.97541 1.5731C8.97037 1.57241 8.96528 1.5721 8.96026 1.57135C8.83731 1.55315 8.71328 1.53862 8.58819 1.52741C8.55241 1.52416 8.51656 1.52224 8.48077 1.51959C8.3946 1.5133 8.30807 1.50785 8.221 1.50494C8.16922 1.50319 8.11749 1.50155 8.06573 1.50104C8.04404 1.50083 8.02203 1.50006 8.0003 1.50006C7.94412 1.50006 7.88816 1.50255 7.83233 1.50397C7.77828 1.50537 7.72419 1.50512 7.67022 1.50787C7.54589 1.5141 7.42249 1.52406 7.3001 1.53717C7.27694 1.53968 7.2539 1.5432 7.23077 1.54596C7.12149 1.55886 7.01311 1.57459 6.90557 1.59284C6.87945 1.5973 6.85351 1.6027 6.82745 1.60748C6.70508 1.62979 6.58403 1.65557 6.46416 1.68463C6.45741 1.68628 6.4504 1.68687 6.44366 1.68854C6.17382 1.75488 5.91097 1.8387 5.65557 1.93756C5.65048 1.93953 5.64503 1.94144 5.63995 1.94342C5.6338 1.94582 5.62752 1.94785 5.62139 1.95026C5.24358 2.09896 4.88362 2.28258 4.54424 2.49616C4.51648 2.5136 4.48872 2.53103 4.46123 2.54889C4.36356 2.61244 4.2671 2.67759 4.17315 2.74616C4.16562 2.75164 4.15819 2.75724 4.15069 2.76276C3.93738 2.91982 3.73459 3.09016 3.54229 3.27155C3.52068 3.29192 3.49917 3.31239 3.47784 3.33307C3.39633 3.41207 3.31685 3.49309 3.23955 3.57623C3.22733 3.58939 3.21456 3.60204 3.20244 3.6153C3.11462 3.71135 3.02956 3.80998 2.94756 3.91119C2.94266 3.91726 2.9378 3.92367 2.93291 3.92975C2.92142 3.94406 2.91108 3.95929 2.89971 3.97369C2.83529 4.05519 2.77274 4.13813 2.71221 4.22272C2.69403 4.24816 2.67532 4.27321 2.65752 4.29889C2.26857 4.85933 1.96597 5.48376 1.76787 6.15338C1.76316 6.16928 1.7588 6.18529 1.7542 6.20123C1.72319 6.30912 1.69571 6.41827 1.67022 6.52838C1.66333 6.55799 1.65618 6.58753 1.64971 6.61725C1.59562 6.86686 1.55508 7.12153 1.53057 7.38092C1.52634 7.42516 1.52315 7.46946 1.51983 7.51373C1.51338 7.60086 1.50816 7.68839 1.50518 7.77643C1.5037 7.8194 1.50287 7.86237 1.50225 7.90534C1.5018 7.93685 1.5003 7.96844 1.5003 8.00006C1.5003 8.06574 1.50324 8.13114 1.50518 8.19635C1.50621 8.23021 1.50655 8.26408 1.50811 8.29791C1.51391 8.42654 1.52326 8.55416 1.53643 8.68073C1.53825 8.69799 1.54033 8.71523 1.54229 8.73248C1.55607 8.85533 1.57352 8.97704 1.59405 9.09772C1.59601 9.10917 1.59886 9.12046 1.60088 9.1319C1.74853 9.97249 2.05693 10.757 2.49444 11.4532C2.50533 11.4706 2.51659 11.4877 2.52764 11.5049C2.58555 11.5952 2.64612 11.6835 2.7083 11.7706C2.72633 11.7959 2.74363 11.8217 2.76202 11.8467C2.83891 11.9513 2.9184 12.0537 3.00127 12.1534C3.0091 12.1628 3.01683 12.1723 3.02471 12.1817C3.09955 12.2707 3.1777 12.3567 3.25713 12.4415C3.2812 12.4672 3.30587 12.4923 3.33037 12.5176C3.39394 12.5833 3.45844 12.648 3.52471 12.711C3.55407 12.7389 3.58269 12.7676 3.6126 12.795C3.70451 12.8791 3.79915 12.9603 3.8958 13.0391C3.90152 13.0438 3.90667 13.0491 3.91241 13.0538C3.97374 13.1034 4.03593 13.1521 4.09893 13.1993C4.12261 13.2171 4.14727 13.2336 4.1712 13.251C4.21939 13.2861 4.26761 13.321 4.3167 13.3546C4.89848 13.7556 5.54856 14.0642 6.24617 14.2593C6.6451 14.3709 6.92609 14.7509 6.8611 15.16C6.79613 15.5689 6.41062 15.8512 6.00959 15.7481C4.90105 15.4633 3.86335 14.9432 2.96905 14.2198L2.7669 14.0508C1.77565 13.1935 1.00908 12.1042 0.536429 10.879C0.0637361 9.65344 -0.0999896 8.33153 0.0588902 7.03034L0.095023 6.77057C0.296868 5.47277 0.815039 4.24562 1.60186 3.19733L1.76299 2.9903C2.64032 1.898 3.7897 1.05483 5.09502 0.545961Z" fill="#010409"/>
<path d="M8.00098 6.5C8.26023 6.5 8.51219 6.56778 8.73438 6.69238C8.27287 7.34449 8.00098 8.14033 8.00098 9V9.5C7.60315 9.5 7.22173 9.34185 6.94043 9.06055C6.65913 8.77924 6.50098 8.39782 6.50098 8C6.50098 7.60218 6.65913 7.22076 6.94043 6.93945C7.22173 6.65815 7.60315 6.5 8.00098 6.5Z" fill="#010409"/>
</svg>

<svg xmlns="http://www.w3.org/2000/svg" width="16" height="16" viewBox="0 0 16 16"><path d="M12.001 6a3 3 0 0 1 3 3v1.168c.591.281 1 .884 1 1.582v2.5a1.75 1.75 0 0 1-1.75 1.75h-4.5a1.75 1.75 0 0 1-1.75-1.75v-2.5c0-.698.409-1.301 1-1.582V9a3 3 0 0 1 3-3Zm0 1.5a1.5 1.5 0 0 0-1.5 1.5v1h3V9a1.5 1.5 0 0 0-1.5-1.5Z"/><path d="M5.095.546a8.004 8.004 0 0 1 3.847-.49l.259.035a8.007 8.007 0 0 1 3.58 1.494l.207.16a7.997 7.997 0 0 1 2.148 2.639c.187.369-.005.807-.391.959-.386.152-.817-.04-1.013-.406a6.516 6.516 0 0 0-1.242-1.635l-.11-.105-.052-.046a5.601 5.601 0 0 0-.226-.193l-.049-.04-.042-.031a5.773 5.773 0 0 0-.249-.187l-.082-.057a6.275 6.275 0 0 0-.683-.411l-.028-.014a6.448 6.448 0 0 0-1.146-.458l-.039-.011a6.667 6.667 0 0 0-.376-.095l-.018-.005a6.137 6.137 0 0 0-.409-.075l-.003-.001h-.003l-.015-.002a7.553 7.553 0 0 0-.479-.051 5.582 5.582 0 0 0-.26-.015l-.155-.004L8 1.5c-.056 0-.112.003-.168.004-.054.001-.108.001-.162.004a6.436 6.436 0 0 0-.37.029l-.069.009c-.11.013-.218.029-.325.047l-.079.014a7.31 7.31 0 0 0-.383.082c-.27.066-.533.15-.788.249l-.016.005a6.598 6.598 0 0 0-1.096.553l-.083.053a6.974 6.974 0 0 0-.288.197l-.022.017a6.438 6.438 0 0 0-.609.509l-.064.061c-.082.079-.161.16-.238.243l-.038.039a7.194 7.194 0 0 0-.254.296l-.015.019c-.012.014-.022.029-.033.044a5.793 5.793 0 0 0-.188.249c-.018.025-.037.05-.054.076a6.468 6.468 0 0 0-.89 1.854l-.014.048a7.116 7.116 0 0 0-.084.327l-.02.089a6.429 6.429 0 0 0-.145 1.159l-.003.129L1.5 8c0 .066.003.131.005.196l.003.102a6.898 6.898 0 0 0 .034.434c.014.123.032.245.052.366l.007.034c.148.84.456 1.625.893 2.321l.034.052c.058.09.118.179.18.266l.054.076c.077.104.156.207.239.306l.024.029c.075.089.153.175.232.259l.073.077c.064.065.128.13.195.193.029.028.058.057.088.084a6.601 6.601 0 0 0 .299.259c.062.049.124.098.187.145l.072.052.146.104a6.46 6.46 0 0 0 1.929.904c.399.112.68.492.615.901-.065.409-.45.691-.851.588a8.005 8.005 0 0 1-3.041-1.528l-.202-.169A8.009 8.009 0 0 1 .059 7.03l.036-.259a8.007 8.007 0 0 1 1.507-3.574l.161-.207A8.005 8.005 0 0 1 5.095.546Z"/><path d="M8.001 6.5c.259 0 .511.068.733.192A3.984 3.984 0 0 0 8.001 9v.5a1.503 1.503 0 0 1-1.5-1.5 1.503 1.503 0 0 1 1.5-1.5Z"/></svg>
